X: 1
T: Lavena [Am]
Z: 1997 by John Chambers <jc@trillian.mit.edu>
M: 6/8
L: 1/8
R: Jig
K: Am
 e \
| "Am"a2a "E7"^g^fg | "Am"a2a e2e | "Am"a2a "E7"^g^fg | "Am"a3 e2e |
| "Dm"fag fgf | "Am"efe "Dm"dcB | "Am"cde "Dm"dec | "E7"B3 "Am"A2 |]
